X:1
T:Signor perche parlando non ardisca
T:Tuburtio Massaino
T:Signor perche parlando non ardisca
T:Prima parte
C:Tuburtio Massaino
%%score [ 1 2 3 4 ]
L:1/8
Q:1/4=120
M:4/2
K:C
V:1 alto1 nm="Soprano" snm="S"
V:2 alto nm="Alto" snm="A"
V:3 tenor nm="Tenor" snm="T"
V:4 bass nm="Bass" snm="B"
V:1
 z16 | z16 | z16 | z8 z4 c4 | B4 c4 A4 d2 c2- | c2 B2 c2 e2 d4 c4 | z2 G4 A4 _B2 A2 A2 | %7
w: |||Si-|gnor per- che par- lan-|* do non ar- di- sca,|Sco- prir- vi tut- ta|
 A2 G2 A4 B2 c4 B2 | z16 | z8 z4 A4 | B6 d2 c4 B4 | A4 A2 E2 ^F3 G A2 A2 | G4 FGAB c4 z2 B2- | %13
w: la mia gio- ia in- te- ra,||Ne|pa- le- sar la|ve- ra, Ne pa- le- sar la|ve- ra, _ _ _ _ Non|
 B2 c2 B4 B2 c2 A4 | z2 E2 G2 G2 G4 G2 d2- | dc c2 A2 B2 c4 B4 | G2 A2 F4 E4 z2 c2 | B2 G2 G4 G8 |] %18
w: _ pro- va- ta d'altr' huom|dol- cez- za pri- a, Non|_ pro- va- ta d'altr' huom dol-|cez- za pri- a, dol-|cez- za pri- a.|
V:2
 z16 | z16 | z16 | z16 | z8 z4 z2 C2 | G4 E4 F6 A2 | G4 C4 F6 E2 | D4 C4 z4 z2 G2- | %8
w: ||||Si-|gnor per- che par-|lan- do non ar-|di- sca, Sco-|
 G2 E4 D2 E2 F2 G4 | F2 D3 EFG AG G4 F2 | G4 D4 E6 G2 | F4 E4 D4 D2 A,2 | B,3 C D2 D2 G,4 G,4 | %13
w: * prir- vi tut- ta la|mia gio- * * * * ia in- te- *|ra, Ne pa- le-|sar la ve- ra, Ne|pa- le- sar la ve- ra,|
 z4 z2 G4 E2 F4 | F2 G2 E4 D2 D4 D2 | EFGE F2 G3 ^F/E/ F2 G2 G2 | D3 EFG A4 E4 G2- | G2 FE D4 E8 |] %18
w: Non pro- va-|ta d'altr' huom dol- cez- za|pri- * * * * * * * * a, dol-|cez- * * * * za pri-|* * * * a.|
V:3
 z16 | z16 | z4 C4 B,4 C4 | A,4 D2 C4 B,2 C2 E2 | D4 C4 z8 | z2 G,4 A,4 _B,2 A,2 A,2 | %6
w: ||Si- gnor per-|che par- lan- do non ar-|di- sca,|Sco- prir- vi tut- ta|
 C4 C2 A,3 G,F,G,A,B, C2- | C2 B,2 A,4 G,4 z2 E2- | E2 C4 B,2 C2 D2 E4 | D4 _B,2 B,2 A,B,CG, D4 | %10
w: la mia gio- * * * * * *|* ia in- te- ra, Sco-|* prir- vi tut- ta la|mia gio- ia in- te- * * * *|
 G,8 z4 G,4 | A,6 C2 B,4 A,4 | E4 A,4 z2 E4 D2 | E4 D2 D2 E2 C4 D2- | DCB,A, B,G, C4 B,A, B,4 | %15
w: ra, Ne|pa- le- sar la|ve- ra, Non pro-|va- ta d'altr' huom dol- cez-|* * * * * za pri- * * *|
 C2 E3 D D2 E2 A,2 D4 | B,2 A,4 D2 C4 B,2 E2 | DC C3 B,/A,/ B,2 C8 |] %18
w: a, Non pro- va- ta d'altr' huom|dol- cez- za pri- a, dol-|cez- za pri- * * * a.|
V:4
 z16 | C,8 G,4 E,4 | F,6 A,2 G,4 C,4 | F,6 E,2 D,4 C,4 | z4 C,4 F,6 A,2 | G,4 C,4 D,3 E, F,4 | %6
w: |Si- gnor per-|che par- lan- do|non ar- di- sca,|per- che par-|lan- do non ar- di-|
 E,4 z2 F,4 D,4 C,2 | D,2 E,2 F,4 E,2 C,3 D,E,F, | G,2 A,2 G,4 C,8 | z16 | z16 | z4 C,4 D,6 F,2 | %12
w: sca, Sco- prir- vi|tut- ta la mia gio- * * *|* ia in- te- ra,|||Ne pa- le-|
 E,4 D,4 C,4 C,2 G,2- | G,2 E,2 G,4 G,2 A,2 F,2 D,2- | D,2 E,4 C,2 G,,4 G,,4 | %15
w: sar la ve- ra, Non|_ pro- va- ta d'altr' huom dol-|* cez- za pri- a,|
 z2 C,2 D,2 B,,2 A,,4 G,,2 G,2- | G,2 D,3 E,F,G, A,4 E,4 | G,8 C,8 |] %18
w: dol- cez- za pri- a, dol-|* cez- * * * * za|pri- a.|

